.local/share/icons/Gruvbox-Plus-Dark/panel/24/keybase-badged.svg

<svg xmlns="http://www.w3.org/2000/svg" width="24" height="24" version="1.1">
 <defs>
  <style id="current-color-scheme" type="text/css">
   .ColorScheme-Text { color:#ebdbb2; } .ColorScheme-Highlight { color:#458588; }
  </style>
 </defs>
 <path style="fill:currentColor" class="ColorScheme-Text" d="m 10.337491,4 c -0.04614,0 -0.3480001,0.5097587 -0.6347656,1.0722656 -0.4197997,0.8234637 -0.6207703,1.4559473 -0.6894531,2.1875 -0.016969,0.1807744 -0.013329,0.3586758 -0.00195,0.5332032 -0.00708,0.078624 -0.010999,0.157397 -0.011719,0.2363281 0,0.3216121 0.06468,0.625957 0.1601562,0.9160156 C 7.894699,9.509545 6.8233524,10.430383 6.087491,11.589844 c -0.1810603,0.236758 -0.3410751,0.483545 -0.4570312,0.748047 -0.1822119,0.415634 -0.3173554,0.845822 -0.4199219,1.310547 -0.068248,0.275755 -0.1256893,0.554232 -0.1601563,0.841796 -0.00307,0.0256 0.00501,0.03097 0.017578,0.02734 -0.013155,0.110763 -0.030783,0.216029 -0.041016,0.332031 -0.032805,0.371885 -0.036745,0.525389 -0.011719,0.525391 L 8.9996004,11 l -1.03125,3.455078 c 0.00607,0.0061 0.1375377,-0.04757 0.2929688,-0.11914 0.9549601,-0.439701 2.1451288,-1.206465 3.1972648,-1.332032 0.36284,-0.0433 1.621735,-0.04746 2,-0.0078 0.766252,0.08029 1.465805,0.671536 2.326172,0.908203 0.381224,0.104871 0.568629,0.13047 0.88086,0.119141 0.31246,-0.01132 0.495749,-0.05307 0.726562,-0.164063 0.575956,-0.276959 0.878965,-0.878336 0.794922,-1.527344 -0.0079,-0.06117 -0.02471,-0.120321 -0.03711,-0.179687 0.02469,-0.06112 0.0017,-0.163651 -0.0957,-0.333985 C 17.9584,11.563568 17.816291,11.308006 17.603118,11.019543 16.812525,10.150762 15.884994,9.42878 14.837491,8.9492188 14.933832,8.6579794 14.9996,8.3524242 14.9996,8.0292969 14.999574,7.9537899 14.9975,7.8780222 14.9918,7.8027344 14.9944,7.7274754 15.0016,7.6521806 14.9977,7.578125 14.944526,6.5609826 14.349928,5.8631388 13.452725,5.4042969 12.977718,5.1613714 12.251068,5.0478117 11.776944,5.046875 11.185451,5.045709 10.735951,4.5371451 10.446866,4.1210938 10.400591,4.0544933 10.35128,3.9999994 10.337491,4 Z m 8.49414,9.828125 c -0.235679,0.392443 -0.574048,0.723996 -1.005859,0.931641 -0.328884,0.158151 -0.735822,0.249642 -1.123047,0.263672 -0.381272,0.01383 -0.761686,-0.03824 -1.183594,-0.154297 -1.137368,-0.312864 -1.841121,-0.845068 -2.164062,-0.878907 -0.142321,-0.01491 -1.677283,-0.0061 -1.777344,0.0059 -0.664601,0.07932 -1.8290209,0.755645 -2.8984371,1.248047 -0.088747,0.04086 -0.1700516,0.07725 -0.2441406,0.107421 -0.037045,0.01508 -0.068655,0.0278 -0.1191407,0.04492 -0.025243,0.0086 -0.0507,0.01801 -0.1171874,0.0332 -0.033244,0.0076 -0.072608,0.01784 -0.171875,0.02344 -0.049633,0.0028 -0.2280842,-0.01164 -0.2285157,-0.01172 -2.157e-4,-4e-5 -0.2205474,-0.06634 -0.2207031,-0.06641 -1.557e-4,-6.6e-5 -0.3182645,-0.214748 -0.3183594,-0.214844 A 1.0001,1.0001 0 0 1 6.9956942,14.6875 L 5.7554598,16.048828 A 1.0001,1.0001 0 0 1 5.0894442,16.373047 6.9999312,6.9999312 0 0 0 6.7925692,20 L 17.208584,20 A 6.9999312,6.9999312 0 0 0 18.9996,15.333984 6.9999312,6.9999312 0 0 0 18.831631,13.828125 Z M 8.9996004,16 a 1,1 0 0 1 1,1 1,1 0 0 1 -1,1 1,1 0 0 1 -1,-1 1,1 0 0 1 1,-1 z M 14.9996,16 a 1,1 0 0 1 1,1 1,1 0 0 1 -1,1 1,1 0 0 1 -1,-1 1,1 0 0 1 1,-1 z"/>
 <circle style="fill:currentColor" class="ColorScheme-Highlight" cx="19" cy="7" r="2"/>
</svg>

<svg width="24" height="24" version="1.1" xmlns="http://www.w3.org/2000/svg">
  <defs>
    <style id="current-color-scheme" type="text/css">.ColorScheme-Text { color:#ebdbb2; } .ColorScheme-Highlight { color:#458588; } .ColorScheme-NeutralText { color:#fe8019; } .ColorScheme-PositiveText { color:#689d6a; } .ColorScheme-NegativeText { color:#fb4934; }</style>
  </defs>
  <path class="ColorScheme-Text" d="m9.701 5.071c-0.4138 0.8118-1.032 2.39-0.543 3.874-4.318 1.814-4.172 6.431-4.156 6.431l3.996-4.375-1.031 3.455s2.165-1.209 3.49-1.451c0.7684-0.1401 1.235-0.1287 2-0.0078 0.7884 0.1245 1.483 0.6177 2.326 0.9082 1.045 0.2897 2.602-0.03155 2.402-1.572-0.1279-1.293-1.941-2.738-3.35-3.382 0.1937-0.5855 0.6415-2.509-1.385-3.545-0.475-0.2429-1.202-0.3565-1.676-0.3574-0.8649-0.0017-1.347-1.047-1.416-1.048-0.06868-7.2e-4 -0.3705 0.5091-0.6573 1.071zm9.129 8.756c-0.5623 0.9361-1.699 1.485-3.313 1.041-1.137-0.3129-1.591-0.7711-2.164-0.8789-0.6479-0.1221-0.9201-0.1502-1.777 0.0059-0.6586 0.1195-1.829 0.7556-2.898 1.248-1.36 0.626-1.656-0.4393-1.684-0.5567l-1.24 1.361c-0.1723 0.1893-0.4107 0.3054-0.666 0.3242 0.2021 1.349 0.794 2.61 1.703 3.627h10.42c1.151-1.282 1.789-2.943 1.791-4.666-0.0022-0.8684-0.1724-1.506-0.1724-1.506zm-9.832 2.172c0.5523 0 1 0.4477 1 1s-0.4477 1-1 1-1-0.4477-1-1 0.4477-1 1-1zm6 0c0.5523 0 1 0.4477 1 1s-0.4477 1-1 1-1-0.4477-1-1 0.4477-1 1-1z" fill="currentColor"/>
  <circle class="ColorScheme-Highlight" cx="19" cy="7" r="2" fill="currentColor"/>
</svg>
